X:1
T:Title
%%score { ( 1 3 ) | 2 }
L:1/8
M:6/8
K:Ab
V:1 treble nm="Grand Piano"
V:3 treble 
V:2 bass 
V:1
 z3 z2[Q:1/4=100] [CE]/[CE]/ | [Ec][DB][CA] [Ec][DB][CA] | [FA][EG][DF] [CE]2 [CE]/[CE]/ | %3
 [CA][CA][CA] [Ec][EB][EA] | B3- B2 E/E/ | [Ec][Fd][Ec] BcB | A[EG][DF] [CE]2 [CE] | %7
 [DF][DF][FA] GFG | [CA]3- [CA]2 [CA] | BBB GFE | EFG [CA]2 [EA] | BBB BAB |[M:5/8] c-c- c3 | %13
[M:1/8] c/d/ |[M:3/4] ee e e2 c |[M:7/8] [FB][FB][Fc] [Fd]3 [FB] |[M:3/4] A>A AG AB | %17
[M:5/8] [A,CEA]-[A,CEA]- [A,CEA]3 |[M:1/8] E |[M:3/4] [GB]>[GB] [GB][GB] [FA][GB] | [Ac]6 | %21
 d>d d[Gd] [Ge][Gd] |[M:5/8] c-c- c3 |[M:1/8] c/d/ |[M:3/4] ee e e2 c | %25
[M:7/8] [FB][FB][Fc] [Fd]3 [FB] |[M:3/4] A>A AG AB |[M:13/8] [CEA]-[CEA]- [CEA]3 z z z z z z z2 |] %28
V:2
 z3 z2 [A,,A,]/[A,,A,]/ | [A,,A,][A,,A,][A,,A,] [A,,A,][A,,A,][A,,A,] | %2
 [D,A,][D,A,][D,A,] [A,,A,]2 [A,,A,] | [A,,E,][A,,E,][A,,E,] [A,,A,][B,,G,][C,A,] | %4
 [E,G,E]3- [E,G,E]2 [E,G,] | [A,,A,][A,,A,][A,,A,] [E,G,D][E,A,E][E,G,D] | %6
 [F,A,C][C,A,][D,A,] [A,,A,]2 [A,,A,] | [D,A,][D,A,][D,D] [E,B,E][E,A,=D][E,B,_D] | %8
 [A,,A,]3- [A,,A,]2 [A,,A,] | [E,G,D][E,G,D][E,G,D] [E,B,D][E,A,D][E,G,D] | %10
 [E,G,D][E,A,D][E,B,E] [A,,A,]2 [C,A,] | [E,G,E][E,G,E][E,G,E] [E,G,E][E,F,E][E,G,E] | %12
[M:5/8][K:treble] [A,E]-[A,E]- [A,E]3 |[M:1/8] [A,E] | %14
[M:3/4] [A,CA][A,CA] [A,CA] [A,CA]2[K:bass] [A,E] |[M:7/8] [D,F,][D,B,][C,=A,] [B,,B,]3 [D,B,] | %16
[M:3/4] [E,CE]>[E,CE] [E,CE][E,B,E] [E,CE][E,DE] |[M:5/8] A,,-A,,- A,,3 |[M:1/8] A, | %19
[M:3/4] [E,E]>[E,E] [E,E][E,E] [E,E][E,E] | A,,>C, E, A,2[K:treble] [A,EA] | %21
 [B,EG]>[B,EG] [B,EG][K:bass][E,E] [E,E][E,E] |[M:5/8][K:treble] [A,EA]-[A,EA]- [A,EA]3 | %23
[M:1/8] [A,E] |[M:3/4] [A,CA][A,CA] [A,CA] [A,CA]2[K:bass] [A,E] | %25
[M:7/8] [D,F,][D,B,][C,=A,] [B,,B,]3 [D,B,] |[M:3/4] [E,CE]>[E,CE] [E,CE][E,B,E] [E,CE][E,DE] | %27
[M:13/8] [A,,A,]-[A,,A,]- [A,,A,]3 z z z z z z z2 |] %28
V:3
 x6 | x6 | x6 | x6 | x6 | x6 | x6 | x6 | x6 | x6 | x6 | x6 |[M:5/8] x5 |[M:1/8] x |[M:3/4] x6 | %15
[M:7/8] x7 |[M:3/4] x6 |[M:5/8] x5 |[M:1/8] x |[M:3/4] x6 | E>E E E2 c | x6 |[M:5/8] x5 | %23
[M:1/8] x |[M:3/4] x6 |[M:7/8] x7 |[M:3/4] x6 |[M:13/8] x13 |] %28

